X:545
T:Another Jig Will Do
R:slip jig
Z:id:hn-slipjig-27
M:9/8
K:D
ABA A2G F2G|ABA AGF G3|ABA A2G F2G|Add dec d3:|
|:A2g f2d e2c|A2B =c2d c3|1 A2g f2d e2^c|Add dec d3:|2 d2A A2G F2G|Add dec d3||
